Stone-flower/app/images/mail.svg

<svg width="30" height="30" viewBox="0 0 30 30" fill="none" xmlns="http://www.w3.org/2000/svg">
<path d="M7.5 5.625C6.50544 5.625 5.55161 6.02009 4.84835 6.72335C4.14509 7.42661 3.75 8.38044 3.75 9.375V9.75188L15 15.81L26.25 9.75375V9.375C26.25 8.38044 25.8549 7.42661 25.1516 6.72335C24.4484 6.02009 23.4946 5.625 22.5 5.625H7.5ZM26.25 11.8819L15.4444 17.7C15.3078 17.7735 15.1551 17.812 15 17.812C14.8449 17.812 14.6922 17.7735 14.5556 17.7L3.75 11.8819V20.625C3.75 21.6196 4.14509 22.5734 4.84835 23.2766C5.55161 23.9799 6.50544 24.375 7.5 24.375H22.5C23.4946 24.375 24.4484 23.9799 25.1516 23.2766C25.8549 22.5734 26.25 21.6196 26.25 20.625V11.8819Z" fill="#FF9903"/>
</svg>

<svg width="30" height="30" fill="none" xmlns="http://www.w3.org/2000/svg"><path d="M7.5 5.625a3.75 3.75 0 00-3.75 3.75v.377L15 15.81l11.25-6.056v-.379a3.75 3.75 0 00-3.75-3.75h-15zm18.75 6.257L15.444 17.7a.938.938 0 01-.888 0L3.75 11.882v8.743a3.75 3.75 0 003.75 3.75h15a3.75 3.75 0 003.75-3.75v-8.743z" fill="#FF9903"/></svg>
